X:005
T: The Lanchester Paste Egg March
M:4/4
R: March
L: 1/4
C: Noel Jackson Easter 2003
S: Noel Jackson <noelbats:onetel.net.uk> tradtunes 2003-4 21
N: To lead the boulers and their newly dyed eggs to the top of Paste Egg Bank
K: G
E2 db | eA A2 | B/2c/2d cB | Ae e2 |
B/2c/2d cB | Ae ec | dB cB | A4 :|
|: G/2A/2B G/2A/2B/2c/2 | dB B2 | Ac A/2B/2c/2d/2 | e2 e2 |
DB cA | Be ed | cA B/2A/2G | A4 :||
